icons/mirc.svg

<!--
  - The MIT License (MIT)
  -
  - Copyright (c) 2015-2024 Elior "Mallowigi" Boukhobza
  -
  - Permission is hereby granted, free of charge, to any person obtaining a copy
  - of this software and associated documentation files (the "Software"), to deal
  - in the Software without restriction, including without limitation the rights
  - to use, copy, modify, merge, publish, distribute, sublicense, and/or sell
  - copies of the Software, and to permit persons to whom the Software is
  - furnished to do so, subject to the following conditions:
  -
  - The above copyright notice and this permission notice shall be included in all
  - copies or substantial portions of the Software.
  -
  - THE SOFTWARE IS PROVIDED "AS IS", WITHOUT WARRANTY OF ANY KIND, EXPRESS OR
  - IMPLIED, INCLUDING BUT NOT LIMITED TO THE WARRANTIES OF MERCHANTABILITY,
  - FITNESS FOR A PARTICULAR PURPOSE AND NONINFRINGEMENT. IN NO EVENT SHALL THE
  - AUTHORS OR COPYRIGHT HOLDERS BE LIABLE FOR ANY CLAIM, DAMAGES OR OTHER
  - LIABILITY, WHETHER IN AN ACTION OF CONTRACT, TORT OR OTHERWISE, ARISING FROM,
  - OUT OF OR IN CONNECTION WITH THE SOFTWARE OR THE USE OR OTHER DEALINGS IN THE
  - SOFTWARE.
  -
  -->

<svg  version="1.1" xmlns="http://www.w3.org/2000/svg" viewBox="0 0 512 512" width="16px" height="16px">
  <path fill="#EF5350" data-iconColor="mIRC"
        d="M39.2643013,228.9150085V2.7810373h101.0582428v39.3105659C160.28508,6.8963351,188.9057007,0.8604814,217.7184448,3.5668387c39.4087219,3.7016268,60.9148254,20.5465069,79.2580566,60.6250267V35.4359856c9.8370056-34.8937225,74.5878601-44.15522,115.991333-17.9852676c25.2344055,15.9499397,36.1383057,48.9563332,37.0727539,86.037674v124.3234253c-29.8838501-14.5244598-69.6686401-16.1650696-102.1614685-3.3095703V122.3913727c0.7703857-18.2608109-23.1149597-21.9099579-48.3353577-15.9948273v122.5184631H197.796402l-0.0000153-106.5236359c-0.2718964-21.7269974-43.4102631-21.0514526-58.2261505-10.9308319v117.4544678H39.2643013z M122.0775909,242.8333893H0v87.9082794h122.0775909V242.8333893z M322.0641174,242.8334045H136.7951813v253.3658142h109.0658264V349.7770996h76.2031097V242.8334045z M122.0775909,346.532959H0v149.6662598h122.0775909V346.532959z M371.8269958,401.7078857c-14.3370667-27.3506775-17.8946228-61.8011169-17.8946228-61.8011169C406.0731812,388.4441223,483.899231,384.1867676,512,310.1268616c-33.3532104-77.4739685-113.9787292-99.7969971-176.940155-65.5262909v118.4250641h-70.4597473c-0.4338989,45.1063538,17.5837402,88.3221436,49.3120117,115.4793091c48.4031372,41.4296875,124.7799072,46.5964966,177.3305359-16.3681641c0,0-14.4286804-9.839325-50.6029663-15.0070801C396.5437317,440.8303528,385.1377563,427.100708,371.8269958,401.7078857z M438.6598816,273.6868286c15.3828735-10.255249,44.0596008,41.2109375,26.9675598,48.997345C450.4344482,330.0907593,427.9882507,280.801239,438.6598816,273.6868286z M405.0454102,291.7284851c15.3829346-10.255249,44.0596619,41.2109375,26.9675598,48.997345C416.8199768,348.1324158,394.3737793,298.8428955,405.0454102,291.7284851z"/>
</svg>

<svg xmlns="http://www.w3.org/2000/svg" viewBox="0 0 512 512"><path fill="#ef5350" d="M39.264 228.915V2.781h101.059v39.31C160.285 6.897 188.906.862 217.718 3.568c39.41 3.701 60.915 20.546 79.259 60.625V35.436c9.837-34.894 74.587-44.155 115.99-17.985 25.235 15.95 36.14 48.956 37.074 86.037v124.324c-29.884-14.525-69.67-16.165-102.162-3.31v-102.11c.77-18.261-23.115-21.91-48.335-15.995v122.518H197.796V122.391c-.272-21.727-43.41-21.051-58.226-10.93v117.454zm82.814 13.918H0v87.909h122.078zm199.986 0H136.795V496.2h109.066V349.777h76.203zm-199.986 103.7H0v149.666h122.078zm249.749 55.175c-14.337-27.35-17.895-61.801-17.895-61.801 52.141 48.537 129.967 44.28 158.068-29.78-33.353-77.474-113.979-99.797-176.94-65.526v118.425H264.6c-.434 45.106 17.584 88.322 49.312 115.479 48.403 41.43 124.78 46.596 177.33-16.368 0 0-14.428-9.84-50.602-15.007-44.096-6.3-55.502-20.03-68.813-45.422m66.833-128.021c15.383-10.255 44.06 41.21 26.967 48.997-15.193 7.407-37.639-41.883-26.967-48.997m-33.615 18.041c15.383-10.255 44.06 41.211 26.968 48.998-15.193 7.406-37.64-41.883-26.968-48.998" data-iconColor="mIRC"/></svg>
